frontend/app/assets/themes/dark/parallax/parallax-background-1.svg

<svg xmlns="http://www.w3.org/2000/svg" width="100%" height="100%" preserveAspectRatio="xMidYMid slice" viewBox="0 0 1600 900"><title>Parallax Glass Tech Background</title><defs><radialGradient id="b" cx="35%" cy="35%" r="60%"><stop offset="0" stop-color="#38bdf8" stop-opacity=".55"/><stop offset=".45" stop-color="#3b82f6" stop-opacity=".22"/><stop offset="1" stop-opacity="0"/></radialGradient><radialGradient id="c" cx="78%" cy="55%" r="65%"><stop offset="0" stop-color="#22c55e" stop-opacity=".38"/><stop offset=".55" stop-color="#166534" stop-opacity=".18"/><stop offset="1" stop-opacity="0"/></radialGradient><radialGradient id="d" cx="55%" cy="10%" r="60%"><stop offset="0" stop-color="#64b5f6" stop-opacity=".35"/><stop offset=".55" stop-color="#1d4ed8" stop-opacity=".12"/><stop offset="1" stop-opacity="0"/></radialGradient><radialGradient id="h" cx="50%" cy="50%" r="70%"><stop offset="55%" stop-opacity="0"/><stop offset="100%" stop-opacity=".78"/></radialGradient><linearGradient id="a" x1="0" x2="1" y1="0" y2="1"><stop offset="0"/><stop offset=".35" stop-color="#0b1220"/><stop offset=".55" stop-color="#1e3a8a" stop-opacity=".85"/><stop offset=".72" stop-color="#1d4ed8" stop-opacity=".55"/><stop offset="1" stop-color="#166534" stop-opacity=".35"/></linearGradient><linearGradient id="g" x1="0" x2="1" y1="0" y2="0"><stop offset="0" stop-color="#38bdf8" stop-opacity=".9"/><stop offset=".5" stop-color="#90caf9" stop-opacity=".55"/><stop offset="1" stop-color="#22c55e" stop-opacity=".8"/></linearGradient><pattern id="e" width="48" height="48" patternUnits="userSpaceOnUse"><path fill="none" stroke="#90caf9" stroke-opacity=".1" d="M48 0H0v48"/><path fill="none" stroke="#90caf9" stroke-opacity=".06" d="M24 0v48M0 24h48"/></pattern><pattern id="f" width="6" height="6" patternUnits="userSpaceOnUse"><path fill="#fff" d="M0 0h6v1H0z" opacity=".06"/></pattern></defs><path d="M-160-90h1944V990H-160z"/><g data-depth=".06" transform="translate(-160 -90) scale(1.35)"><path fill="url(#a)" d="M0 0h1440v800H0z"/><ellipse cx="520" cy="280" fill="url(#b)" rx="640" ry="460"/><ellipse cx="1120" cy="470" fill="url(#c)" rx="760" ry="520"/><ellipse cx="820" cy="120" fill="url(#d)" rx="640" ry="360"/></g><g data-depth=".12" style="mix-blend-mode:screen"><path fill="#1d4ed8" d="M96.5 733.5C218 585 461 612 596 490.5c162-148.5 67.5-297 270-351 229.5-60.75 297 108 459 189 189 94.5 351 67.5 459-13.5v675H-160Z" opacity=".14"/><path fill="#22c55e" d="M-160 612c189-67.5 378 0 567-67.5 243-87.75 297-243 540-283.5 256.5-47.25 351 108 553.5 175.5C1622 477 1703 450 1784 396v594H-160Z" opacity=".1"/><path fill="#38bdf8" d="M-160 234c216-67.5 391.5-13.5 580.5-67.5C677 85.5 785-36 1028-9c256.5 27 378 148.5 594 202.5 94.5 24.3 135 13.5 162 0V-90H-160Z" opacity=".1"/></g><g data-depth=".18"><path fill="url(#e)" d="M0 0h1440v800H0z" opacity=".65" transform="translate(-160 -90) scale(1.35)"/><path fill="url(#f)" d="M0 0h1440v800H0z" opacity=".25" transform="translate(-160 -90) scale(1.35)"/><path d="M-160-90h1944V990H-160z" opacity=".55"/></g><g data-depth=".28" opacity=".95"><g fill="none" stroke="url(#g)" stroke-linecap="round" stroke-linejoin="round" stroke-width="2" opacity=".55" transform="translate(-160 -90) scale(1.35)"><path d="M120 560h300q40 0 40-40V420q0-40 40-40h180"/><path d="M220 220h300q40 0 40 40v50q0 40 40 40h220q40 0 40-40v-60"/><path d="M860 520h180q60 0 60-60V360q0-40 40-40h180"/><path d="M980 160h160q40 0 40 40v60q0 40 40 40h120"/><path d="M80 360h160q60 0 60-60v-60q0-40 40-40h80"/></g><g opacity=".75" style="mix-blend-mode:screen" transform="translate(-160 -90) scale(1.35)"><circle cx="460" cy="520" r="5" fill="#38bdf8"/><circle cx="560" cy="260" r="5" fill="#90caf9"/><circle cx="1100" cy="460" r="5" fill="#22c55e"/><circle cx="1180" cy="200" r="5" fill="#64b5f6"/><circle cx="300" cy="300" r="5" fill="#3b82f6"/><circle cx="680" cy="380" r="4" fill="#38bdf8"/><circle cx="1320" cy="320" r="4" fill="#22c55e"/><circle cx="860" cy="250" r="4" fill="#90caf9"/></g><g fill="#cbd5f5" opacity=".55" transform="translate(-160 -90) scale(1.35)"><circle cx="180" cy="120" r="2"/><circle cx="260" cy="640" r="2"/><circle cx="720" cy="690" r="2"/><circle cx="1180" cy="110" r="2"/><circle cx="1320" cy="610" r="2"/><circle cx="980" cy="420" r="2"/></g></g><g data-depth=".38"><g opacity=".92" transform="translate(-160 -90) scale(1.35)"><rect width="420" height="170" x="120" y="120" fill="#1e293b" fill-opacity=".42" stroke="#90caf9" stroke-opacity=".22" rx="22"/><rect width="460" height="190" x="860" y="480" fill="#111827" fill-opacity=".4" stroke="#38bdf8" stroke-opacity=".2" rx="24"/><rect width="320" height="140" x="560" y="310" fill="#0f172a" fill-opacity=".42" stroke="#22c55e" stroke-opacity=".16" rx="22"/></g><g stroke-linecap="round" stroke-width="2" opacity=".35" style="mix-blend-mode:screen"><path stroke="#38bdf8" stroke-width="2.7" d="M42.5 112.5H515"/><path stroke="#64b5f6" stroke-width="2.7" d="M636.5 369h351"/><path stroke="#22c55e" stroke-width="2.7" d="M1041.5 598.5H1568"/></g></g><path fill="url(#h)" d="M0 0h1440v800H0z" transform="translate(-160 -90) scale(1.35)"/></svg>

<!-- Save as: hero-parallax.svg  |  Height fixed at 800, responsive width -->
<svg xmlns="http://www.w3.org/2000/svg" width="100%" height="800" viewBox="0 0 1440 800" preserveAspectRatio="xMidYMid slice">
  <title>Parallax Glass Tech Background</title>

  <defs>
    <!-- Core palette (from your tokens) -->
    <!-- hero-gradient-start: #1E3A8A | mid: #1D4ED8 | end: #166534 -->
    <!-- accent-primary-highlight: #38BDF8 | accent-supporting: #22C55E | shadow-primary-600: #3B82F6 -->

    <linearGradient id="bgGrad" x1="0" y1="0" x2="1" y2="1">
      <stop offset="0" stop-color="#000000"></stop>
      <stop offset="0.35" stop-color="#0B1220"></stop>
      <stop offset="0.55" stop-color="#1E3A8A" stop-opacity="0.85"></stop>
      <stop offset="0.72" stop-color="#1D4ED8" stop-opacity="0.55"></stop>
      <stop offset="1" stop-color="#166534" stop-opacity="0.35"></stop>
    </linearGradient>

    <radialGradient id="glowBlue" cx="35%" cy="35%" r="60%">
      <stop offset="0" stop-color="#38BDF8" stop-opacity="0.55"></stop>
      <stop offset="0.45" stop-color="#3B82F6" stop-opacity="0.22"></stop>
      <stop offset="1" stop-color="#000000" stop-opacity="0"></stop>
    </radialGradient>

    <radialGradient id="glowGreen" cx="78%" cy="55%" r="65%">
      <stop offset="0" stop-color="#22C55E" stop-opacity="0.38"></stop>
      <stop offset="0.55" stop-color="#166534" stop-opacity="0.18"></stop>
      <stop offset="1" stop-color="#000000" stop-opacity="0"></stop>
    </radialGradient>

    <radialGradient id="glowIce" cx="55%" cy="10%" r="60%">
      <stop offset="0" stop-color="#64B5F6" stop-opacity="0.35"></stop>
      <stop offset="0.55" stop-color="#1D4ED8" stop-opacity="0.12"></stop>
      <stop offset="1" stop-color="#000000" stop-opacity="0"></stop>
    </radialGradient>

    <!-- Subtle grid -->
    <pattern id="grid" width="48" height="48" patternUnits="userSpaceOnUse">
      <path d="M 48 0 H 0 V 48" fill="none" stroke="#90CAF9" stroke-opacity="0.10" stroke-width="1"></path>
      <path d="M 24 0 V 48 M 0 24 H 48" fill="none" stroke="#90CAF9" stroke-opacity="0.06" stroke-width="1"></path>
    </pattern>

    <!-- Scanlines -->
    <pattern id="scanlines" width="6" height="6" patternUnits="userSpaceOnUse">
      <rect width="6" height="1" y="0" fill="#FFFFFF" opacity="0.06"></rect>
    </pattern>

    <!-- Noise overlay -->
    <filter id="noise" x="-20%" y="-20%" width="140%" height="140%">
      <feTurbulence type="fractalNoise" baseFrequency="0.9" numOctaves="2" stitchTiles="stitch"></feTurbulence>
      <feColorMatrix type="matrix" values="
        1 0 0 0 0
        0 1 0 0 0
        0 0 1 0 0
        0 0 0 0.12 0"></feColorMatrix>
    </filter>

    <!-- Soft glow -->
    <filter id="softGlow" x="-30%" y="-30%" width="160%" height="160%">
      <feGaussianBlur stdDeviation="18" result="b"></feGaussianBlur>
      <feColorMatrix in="b" type="matrix" values="
        1 0 0 0 0
        0 1 0 0 0
        0 0 1 0 0
        0 0 0 0.9 0" result="g"></feColorMatrix>
      <feMerge>
        <feMergeNode in="g"></feMergeNode>
        <feMergeNode in="SourceGraphic"></feMergeNode>
      </feMerge>
    </filter>

    <!-- Glass card feel -->
    <filter id="glass" x="-20%" y="-20%" width="140%" height="140%">
      <feGaussianBlur stdDeviation="6" result="blur"></feGaussianBlur>
      <feSpecularLighting in="blur" surfaceScale="2" specularConstant="0.35" specularExponent="24" lighting-color="#FFFFFF" result="spec">
        <feDistantLight azimuth="220" elevation="35"></feDistantLight>
      </feSpecularLighting>
      <feComposite in="spec" in2="SourceAlpha" operator="in" result="specIn"></feComposite>
      <feMerge>
        <feMergeNode in="SourceGraphic"></feMergeNode>
        <feMergeNode in="specIn"></feMergeNode>
      </feMerge>
    </filter>

    <!-- Vignette -->
    <radialGradient id="vignette" cx="50%" cy="50%" r="70%">
      <stop offset="55%" stop-color="#000000" stop-opacity="0"></stop>
      <stop offset="100%" stop-color="#000000" stop-opacity="0.78"></stop>
    </radialGradient>

    <!-- “Circuit” stroke gradient -->
    <linearGradient id="circuitGrad" x1="0" y1="0" x2="1" y2="0">
      <stop offset="0" stop-color="#38BDF8" stop-opacity="0.9"></stop>
      <stop offset="0.5" stop-color="#90CAF9" stop-opacity="0.55"></stop>
      <stop offset="1" stop-color="#22C55E" stop-opacity="0.8"></stop>
    </linearGradient>
  </defs>

  <!-- Base -->
  <rect width="1440" height="800" fill="#000000"></rect>

  <!-- LAYER 0: background gradient + large glows -->
  <g id="layer0" data-depth="0.06">
    <rect width="1440" height="800" fill="url(#bgGrad)"></rect>
    <ellipse cx="520" cy="280" rx="640" ry="460" fill="url(#glowBlue)"></ellipse>
    <ellipse cx="1120" cy="470" rx="760" ry="520" fill="url(#glowGreen)"></ellipse>
    <ellipse cx="820" cy="120" rx="640" ry="360" fill="url(#glowIce)"></ellipse>
  </g>

  <!-- LAYER 1: blurred “nebula” blobs (parallax friendly) -->
  <g id="layer1" data-depth="0.12" filter="url(#softGlow)" style="mix-blend-mode:screen">
    <path d="M190,610 C280,500 460,520 560,430 C680,320 610,210 760,170 C930,125 980,250 1100,310 C1240,380 1360,360 1440,300 L1440,800 L0,800 Z" fill="#1D4ED8" opacity="0.14"></path>
    <path d="M0,520 C140,470 280,520 420,470 C600,405 640,290 820,260 C1010,225 1080,340 1230,390 C1320,420 1380,400 1440,360 L1440,800 L0,800 Z" fill="#22C55E" opacity="0.10"></path>
    <path d="M0,240 C160,190 290,230 430,190 C620,130 700,40 880,60 C1070,80 1160,170 1320,210 C1390,228 1420,220 1440,210 L1440,0 L0,0 Z" fill="#38BDF8" opacity="0.10"></path>
  </g>

  <!-- LAYER 2: grid + scanlines + noise -->
  <g id="layer2" data-depth="0.18">
    <rect width="1440" height="800" fill="url(#grid)" opacity="0.65"></rect>
    <rect width="1440" height="800" fill="url(#scanlines)" opacity="0.25"></rect>
    <rect width="1440" height="800" filter="url(#noise)" opacity="0.55"></rect>
  </g>

  <!-- LAYER 3: circuits + particles -->
  <g id="layer3" data-depth="0.28" opacity="0.95">
    <g fill="none" stroke="url(#circuitGrad)" stroke-width="2" stroke-linecap="round" stroke-linejoin="round" opacity="0.55">
      <path d="M120 560 H420 Q460 560 460 520 V420 Q460 380 500 380 H680"></path>
      <path d="M220 220 H520 Q560 220 560 260 V310 Q560 350 600 350 H820 Q860 350 860 310 V250"></path>
      <path d="M860 520 H1040 Q1100 520 1100 460 V360 Q1100 320 1140 320 H1320"></path>
      <path d="M980 160 H1140 Q1180 160 1180 200 V260 Q1180 300 1220 300 H1340"></path>
      <path d="M80 360 H240 Q300 360 300 300 V240 Q300 200 340 200 H420"></path>
    </g>

    <!-- Nodes -->
    <g opacity="0.75" style="mix-blend-mode:screen">
      <circle cx="460" cy="520" r="5" fill="#38BDF8"></circle>
      <circle cx="560" cy="260" r="5" fill="#90CAF9"></circle>
      <circle cx="1100" cy="460" r="5" fill="#22C55E"></circle>
      <circle cx="1180" cy="200" r="5" fill="#64B5F6"></circle>
      <circle cx="300" cy="300" r="5" fill="#3B82F6"></circle>
      <circle cx="680" cy="380" r="4" fill="#38BDF8"></circle>
      <circle cx="1320" cy="320" r="4" fill="#22C55E"></circle>
      <circle cx="860" cy="250" r="4" fill="#90CAF9"></circle>
    </g>

    <!-- Floating particles -->
    <g opacity="0.55">
      <circle cx="180" cy="120" r="2" fill="#CBD5F5"></circle>
      <circle cx="260" cy="640" r="2" fill="#CBD5F5"></circle>
      <circle cx="720" cy="690" r="2" fill="#CBD5F5"></circle>
      <circle cx="1180" cy="110" r="2" fill="#CBD5F5"></circle>
      <circle cx="1320" cy="610" r="2" fill="#CBD5F5"></circle>
      <circle cx="980" cy="420" r="2" fill="#CBD5F5"></circle>
    </g>
  </g>

  <!-- LAYER 4: glassmorphism cards (optional depth elements) -->
  <g id="layer4" data-depth="0.38">
    <g filter="url(#glass)" opacity="0.92">
      <rect x="120" y="120" width="420" height="170" rx="22" fill="#1E293B" fill-opacity="0.42" stroke="#90CAF9" stroke-opacity="0.22"></rect>
      <rect x="860" y="480" width="460" height="190" rx="24" fill="#111827" fill-opacity="0.40" stroke="#38BDF8" stroke-opacity="0.20"></rect>
      <rect x="560" y="310" width="320" height="140" rx="22" fill="#0F172A" fill-opacity="0.42" stroke="#22C55E" stroke-opacity="0.16"></rect>
    </g>

    <!-- Card highlights -->
    <g opacity="0.35" style="mix-blend-mode:screen">
      <path d="M150 150 H500" stroke="#38BDF8" stroke-width="2" stroke-linecap="round"></path>
      <path d="M590 340 H850" stroke="#64B5F6" stroke-width="2" stroke-linecap="round"></path>
      <path d="M890 510 H1280" stroke="#22C55E" stroke-width="2" stroke-linecap="round"></path>
    </g>
  </g>

  <!-- Vignette for focus -->
  <rect width="1440" height="800" fill="url(#vignette)"></rect>
</svg>
